X: 6641
T: Ceanngulla, The
R: slide
M: 12/8
K: Dmajor
d2B AFA ded d2e|1 f2b afd efe dfe:|2 f2b afd efe def||
d2B AFA ded d2e|1 f2b afd efe def:|2 f2b afd efe dfe||

